img/logo.svg

<?xml version="1.0" encoding="UTF-8"?>
<svg width="429px" height="50px" viewBox="0 0 429 50" version="1.1" xmlns="http://www.w3.org/2000/svg" xmlns:xlink="http://www.w3.org/1999/xlink">
    <!-- Generator: Sketch 42 (36781) - http://www.bohemiancoding.com/sketch -->
    <title>Group</title>
    <desc>Created with Sketch.</desc>
    <defs></defs>
    <g id="Page-1" stroke="none" stroke-width="1" fill="none" fill-rule="evenodd">
        <g id="Desktop-HD" transform="translate(-537.000000, -509.000000)">
            <g id="Group" transform="translate(537.000000, 509.000000)">
                <rect id="Rectangle-2" fill="#BEA67C" x="91.6393443" y="20.4081633" width="122.857143" height="11.2244898"></rect>
                <path d="M51.2559516,48.6867035 L40.60994,48.6867035 L32.3610436,16.1702686 L24.1826506,48.6867035 L13.5366389,48.6867035 L0.0704918033,1.33198282 L11.2805305,1.33198282 L19.5294269,35.5523357 L28.4833572,1.33198282 L36.3092333,1.33198282 L45.1926602,35.5523357 L53.3710532,1.33198282 L64.6515954,1.33198282 L51.2559516,48.6867035 Z M114.930583,49.5386625 C100.759402,49.5386625 90.3954042,39.3151546 90.3954042,25.0448415 C90.3954042,10.7745283 100.759402,0.551020408 114.930583,0.551020408 C129.172268,0.551020408 139.536266,10.7745283 139.536266,25.0448415 C139.536266,39.3151546 129.172268,49.5386625 114.930583,49.5386625 Z M114.930583,40.5930931 C123.6025,40.5930931 129.242771,33.8484177 129.242771,25.0448415 C129.242771,16.1702686 123.6025,9.49658983 114.930583,9.49658983 C106.258667,9.49658983 100.688899,16.1702686 100.688899,25.0448415 C100.688899,33.8484177 106.258667,40.5930931 114.930583,40.5930931 Z M193.551933,49.5386625 C179.380752,49.5386625 169.016754,39.3151546 169.016754,25.0448415 C169.016754,10.7745283 179.380752,0.551020408 193.551933,0.551020408 C207.793618,0.551020408 218.157616,10.7745283 218.157616,25.0448415 C218.157616,39.3151546 207.793618,49.5386625 193.551933,49.5386625 Z M193.551933,40.5930931 C202.22385,40.5930931 207.864121,33.8484177 207.864121,25.0448415 C207.864121,16.1702686 202.22385,9.49658983 193.551933,9.49658983 C184.880016,9.49658983 179.310249,16.1702686 179.310249,25.0448415 C179.310249,33.8484177 184.880016,40.5930931 193.551933,40.5930931 Z M268.436604,48.6867035 L249.894212,48.6867035 L249.894212,1.33198282 L268.436604,1.33198282 C283.171812,1.33198282 293.394803,10.7745283 293.394803,25.0448415 C293.394803,39.3151546 283.171812,48.6867035 268.436604,48.6867035 Z M268.436604,39.8121307 C277.743051,39.8121307 283.171812,33.0674553 283.171812,25.0448415 C283.171812,16.6672447 278.095568,10.2065557 268.436604,10.2065557 L259.905694,10.2065557 L259.905694,39.8121307 L268.436604,39.8121307 Z M358.479502,48.6867035 L325.201903,48.6867035 L325.201903,1.33198282 L358.479502,1.33198282 L358.479502,10.2065557 L335.213384,10.2065557 L335.213384,20.2170738 L357.985979,20.2170738 L357.985979,29.0916467 L335.213384,29.0916467 L335.213384,39.8121307 L358.479502,39.8121307 L358.479502,48.6867035 Z M429.063466,48.6867035 L417.571414,48.6867035 L408.33547,31.8605134 L401.003118,31.8605134 L401.003118,48.6867035 L390.991636,48.6867035 L390.991636,1.33198282 L412.988694,1.33198282 C422.788664,1.33198282 428.781452,7.79267185 428.781452,16.5962481 C428.781452,24.9738449 423.564202,29.4466296 418.487958,30.6535715 L429.063466,48.6867035 Z M411.508122,22.9859406 C415.526816,22.9859406 418.558461,20.5720567 418.558461,16.5962481 C418.558461,12.6204395 415.526816,10.2065557 411.508122,10.2065557 L401.003118,10.2065557 L401.003118,22.9859406 L411.508122,22.9859406 Z" id="WOODER" fill="#FFFFFF"></path>
            </g>
        </g>
    </g>
</svg>

<svg width="429" height="50" viewBox="0 0 429 50" xmlns="http://www.w3.org/2000/svg"><title>Group</title><g fill="none" fill-rule="evenodd"><path fill="#BEA67C" d="M91.639 20.408h122.857v11.224H91.639z"/><path d="M51.256 48.687H40.61L32.36 16.17l-8.178 32.517H13.537L.07 1.332h11.21l8.25 34.22 8.953-34.22h7.826l8.884 34.22 8.178-34.22h11.28L51.257 48.687zm63.675.852c-14.172 0-24.536-10.224-24.536-24.494S100.76.55 114.931.55c14.241 0 24.605 10.224 24.605 24.494s-10.364 24.494-24.605 24.494zm0-8.946c8.672 0 14.312-6.745 14.312-15.548 0-8.875-5.64-15.548-14.312-15.548s-14.242 6.673-14.242 15.548c0 8.803 5.57 15.548 14.242 15.548zm78.62 8.946c-14.17 0-24.534-10.224-24.534-24.494S179.38.55 193.552.55c14.242 0 24.606 10.224 24.606 24.494s-10.364 24.494-24.606 24.494zm0-8.946c8.673 0 14.313-6.745 14.313-15.548 0-8.875-5.64-15.548-14.312-15.548S179.31 16.17 179.31 25.045c0 8.803 5.57 15.548 14.242 15.548zm74.886 8.094h-18.543V1.332h18.543c14.735 0 24.958 9.443 24.958 23.713 0 14.27-10.223 23.642-24.958 23.642zm0-8.875c9.306 0 14.735-6.745 14.735-14.767 0-8.378-5.076-14.838-14.735-14.838h-8.531v29.605h8.53zm90.043 8.875h-33.278V1.332h33.278v8.875h-23.267v10.01h22.773v8.875h-22.773v10.72h23.267v8.875zm70.583 0h-11.492l-9.236-16.826h-7.332v16.826h-10.011V1.332h21.997c9.8 0 15.792 6.46 15.792 15.264 0 8.378-5.217 12.85-10.293 14.058l10.575 18.033zm-17.555-25.701c4.019 0 7.05-2.414 7.05-6.39 0-3.976-3.031-6.39-7.05-6.39h-10.505v12.78h10.505z" fill="#FFF"/></g></svg>
